X: 12566
T: Farewell To Philip Lane
R: reel
M: 4/4
K: Fmajor
AFFA FAdc|A2FG A~G3|AFFA FGAc|cdcA A~G3:|
Accd cAFG|AcGF GFFG|Accd cAFG|AGGF ~G2FG|
Accd cAFG|AcGF GFFG|~A2GF Acde|dcAF ~G2FG||

